X:61
M:6/8
L:1/8
Q:3/8=100
K:Eb
EGB BGE|BGE cde|BGE BGE|DEF F3|\
EGB BGE|BGE cde|{e/}dcB FB=A|B3-B3:|
|:BcB fdB|c2 d eBG|edc BAG|FGE DCB,|\

